images/envelope-icon.svg

<svg width="16" height="12" fill="none" xmlns="http://www.w3.org/2000/svg"><path d="M14.5 0H1.50001C.672854 0 0 .672853 0 1.50001V10.5c0 .8271.672854 1.5 1.50001 1.5H14.5c.8271 0 1.5-.6729 1.5-1.5V1.50001C16 .672853 15.3271 0 14.5 0zm0 .999994c.0679 0 .1325.014096.1916.038706L8 6.83838 1.30833 1.0387c.05909-.02458.12371-.038706.19165-.038706H14.5zM14.5 11H1.50001c-.27587 0-.500014-.2241-.500014-.5V2.09521L7.67236 7.87792c.09425.08152.21094.12207.32764.12207s.23339-.04051.32764-.12207L15 2.09521V10.5c0 .2759-.2241.5-.5.5z" fill="#757575"/></svg>

<svg width="16" height="12" viewBox="0 0 16 12" fill="none" xmlns="http://www.w3.org/2000/svg">
<path d="M14.5 0H1.50001C0.672854 0 0 0.672853 0 1.50001V10.5C0 11.3271 0.672854 12 1.50001 12H14.5C15.3271 12 16 11.3271 16 10.5V1.50001C16 0.672853 15.3271 0 14.5 0ZM14.5 0.999994C14.5679 0.999994 14.6325 1.01409 14.6916 1.0387L8 6.83838L1.30833 1.0387C1.36742 1.01412 1.43204 0.999994 1.49998 0.999994H14.5ZM14.5 11H1.50001C1.22414 11 0.999996 10.7759 0.999996 10.5V2.09521L7.67236 7.87792C7.76661 7.95944 7.8833 7.99999 8 7.99999C8.1167 7.99999 8.23339 7.95948 8.32764 7.87792L15 2.09521V10.5C15 10.7759 14.7759 11 14.5 11Z" fill="#757575"/>
</svg>
